X: 1
T:The Silkie
M:3/4
L:1/8
Q:80
C:Cindy Matyi
S:Air
K:HP
|: {gcd}c3{g}B{d}A2|
{GdG}B3c{g}d2|
{gef}ea2-af2|  !
{gf}g3e{g}d2|
{gcd}c3{g}B{d}A2|
{GdG}B3A{d}G2|  !
{gBd}B{e}A2-AG2|
{g}A6:| |:
{gef}ea2-af2|  !
{gf}g3e{g}d2|
{gcd}c3{e}AB2|
{GdG}c3de2|  !
{gef}ea2-af2|
{gf}g3e{g}d2|
{gcd}c{e}A2-AG2|  !
{g}A6:|
